X: 25984
T: Mayday, The
R: hornpipe
M: 4/4
K: Dmajor
|:A>G|F>GA>B c>BA>G|A>dd>c d2e>f|g>fe>d c>de>d|c>BA>F G>BA>G|
F>GA>B c>BA>G|A>dd>c d2e>f|g>fe>d c>de>d|c2A2 A2:|
|:f>g|a2a>f g2g>e|f2f>d e2e>f|g>fe>d c>de>d|c>BA>F G>BA>G|
F>GA>B c>BA>G|A>dd>c d2e>f|g>fe>d c>de>d|c2A2 A2:|

